packages/icons/src/image-two-fill.svg

<svg width="24" height="24" viewBox="0 0 24 24" fill="none" xmlns="http://www.w3.org/2000/svg">
<path d="M9 14H19L15.55 9.5L13.25 12.5L11.7 10.5L9 14ZM8 18C7.45 18 6.97917 17.8042 6.5875 17.4125C6.19583 17.0208 6 16.55 6 16V4C6 3.45 6.19583 2.97917 6.5875 2.5875C6.97917 2.19583 7.45 2 8 2H20C20.55 2 21.0208 2.19583 21.4125 2.5875C21.8042 2.97917 22 3.45 22 4V16C22 16.55 21.8042 17.0208 21.4125 17.4125C21.0208 17.8042 20.55 18 20 18H8ZM4 22C3.45 22 2.97917 21.8042 2.5875 21.4125C2.19583 21.0208 2 20.55 2 20V6H4V20H18V22H4Z" fill="black"/>
</svg>

<svg xmlns="http://www.w3.org/2000/svg" width="24" height="24" fill="none" viewBox="0 0 24 24">
  <path fill="#000" d="M9 14h10l-3.45-4.5-2.3 3-1.55-2L9 14Zm-1 4c-.55 0-1.02-.196-1.412-.587A1.926 1.926 0 0 1 6 16V4c0-.55.196-1.02.588-1.413A1.926 1.926 0 0 1 8 2h12c.55 0 1.02.196 1.413.587.39.393.587.863.587 1.413v12c0 .55-.196 1.02-.587 1.413A1.926 1.926 0 0 1 20 18H8Zm-4 4c-.55 0-1.02-.196-1.413-.587A1.926 1.926 0 0 1 2 20V6h2v14h14v2H4Z"/>
</svg>
